X:254
T:Widow - Weaver
%%VWML:SBG-1-2-599-0
F:http://www.vwml.org/record/SBG/1/2/599
Z:Original Sibelius transcriptions by M. & S. Graebe
M:6/8
I:linebreak $
K:A
V:1 treble nm="P1"
V:1
 A | Ac e ef e | cB A c2 d | cB A GA B | c4 z e | e^d c d2 e |$ ^dc B e2 f/ f/ | ec B AG A | %8
 c4 z d | e4 z A/ A/ | GF G cd G | A4 z x | %12



